img/logo.svg

<svg fill="none" height="61" viewBox="0 0 54 61" width="54" xmlns="http://www.w3.org/2000/svg" xmlns:xlink="http://www.w3.org/1999/xlink"><linearGradient id="a" gradientUnits="userSpaceOnUse" x1="21.3963" x2="56.7235" y1="2.6662" y2="55.3237"><stop offset="0" stop-color="#74b9df"/><stop offset=".461215" stop-color="#eb8052" stop-opacity=".65"/><stop offset="1" stop-color="#cc6c6c"/></linearGradient><g fill="url(#a)"><path d="m6.19893 60.3229c-1.82191 0-3.31054-.6221-4.4659-1.8664-1.155352-1.2442-1.73303-2.644-1.73303-4.1992 0-1.5109.466586-2.7551 1.39976-3.7327.97761-.9776 2.06631-1.4664 3.2661-1.4664 1.24423 0 2.31071.3999 3.19944 1.1997.88874.7999 1.3331 1.822 1.3331 3.0662s-.33327 2.1996-.99982 2.8662c-.66655.6665-1.48863.9998-2.46624.9998-1.55529 0-2.59955-.6888-3.13279-2.0663-.17775-.4-.39993-.5999-.66655-.5999-.44437 0-.62212.2444-.53324.7332.17774 1.1109.7332 2.0218 1.66637 2.7328.93318.7555 2.13297 1.1332 3.59938 1.1332s2.62177-.5999 3.46609-1.7997c.8887-1.1554 1.3331-2.5773 1.3331-4.2659s-.6888-3.7327-2.06633-6.1323c-1.3331-2.3552-1.99965-4.4437-1.99965-6.2656v-38.26001h-5.53238v-1.06649h17.33036v1.06649h-4.8659v44.45891c0 4.3993-.7109 7.732-2.1329 9.9983-1.422 2.3107-3.42164 3.4661-5.99897 3.4661z"/><path d="m40.0024 44.7256c2.7551 0 4.9325-.8221 6.5322-2.4663 1.5998-1.6441 2.3996-3.7104 2.3996-6.1989 0-2.5329-.7998-4.5548-2.3996-6.0656-1.5997-1.5109-3.5327-2.7106-5.799-3.5994-2.2662-.9332-4.5325-1.9108-6.7988-2.9328-2.2663-1.0221-4.1993-2.4885-5.799-4.3992-1.5997-1.9108-2.3996-4.266-2.3996-7.0655 0-3.7771 1.111-6.70993 3.3328-8.79846 2.2218-2.13296 5.2435-3.19944 9.0651-3.19944 1.9996 0 4.2437.377712 6.7322 1.13313 2.4884.75543 3.9326 1.13314 4.3325 1.13314 1.2887 0 2.0441-.75542 2.2663-2.26627h.7999v14.5975h-1.0665c-.6666-4.0438-2.0219-7.26544-4.066-9.66502-2.0441-2.44402-4.8436-3.66603-8.3985-3.66603-2.3996 0-4.3326.71098-5.799 2.13296-1.422 1.37754-2.133 3.24388-2.133 5.59903 0 2.31066.7999 4.22146 2.3996 5.73236 1.5997 1.5108 3.5327 2.7328 5.799 3.666 2.2663.8887 4.5326 1.8441 6.7988 2.8662 2.2663 1.022 4.1993 2.4884 5.799 4.3992s2.3996 4.2659 2.3996 7.0655c0 3.9548-1.3998 7.1543-4.1993 9.5983s-6.2878 3.666-10.4648 3.666c-2.0441 0-4.2215-.3777-6.5322-1.1331-2.2663-.7554-3.5994-1.1332-3.9993-1.1332-1.2887 0-2.0441.7555-2.2663 2.2663h-.7999l-.6665-16.3305h1.0665c1.3331 10.0427 5.9545 15.0641 13.8642 15.0641z"/></g></svg>

<svg width="54" height="61" viewBox="0 0 54 61" fill="none" xmlns="http://www.w3.org/2000/svg">
<path d="M6.19893 60.3229C4.37702 60.3229 2.88839 59.7008 1.73303 58.4565C0.577678 57.2123 0 55.8125 0 54.2573C0 52.7464 0.466586 51.5022 1.39976 50.5246C2.37737 49.547 3.46607 49.0582 4.66586 49.0582C5.91009 49.0582 6.97657 49.4581 7.8653 50.2579C8.75404 51.0578 9.1984 52.0799 9.1984 53.3241C9.1984 54.5683 8.86513 55.5237 8.19858 56.1903C7.53203 56.8568 6.70995 57.1901 5.73234 57.1901C4.17705 57.1901 3.13279 56.5013 2.59955 55.1238C2.4218 54.7238 2.19962 54.5239 1.933 54.5239C1.48863 54.5239 1.31088 54.7683 1.39976 55.2571C1.5775 56.368 2.13296 57.2789 3.06613 57.9899C3.99931 58.7454 5.1991 59.1231 6.66551 59.1231C8.13192 59.1231 9.28728 58.5232 10.1316 57.3234C11.0203 56.168 11.4647 54.7461 11.4647 53.0575C11.4647 51.3689 10.7759 49.3248 9.39837 46.9252C8.06527 44.57 7.39872 42.4815 7.39872 40.6596V2.39959H1.86634V1.3331H19.1967V2.39959H14.3308V46.8585C14.3308 51.2578 13.6199 54.5905 12.1979 56.8568C10.7759 59.1675 8.77626 60.3229 6.19893 60.3229Z" fill="url(#paint0_linear_2_8)"/>
<path d="M40.0024 44.7256C42.7575 44.7256 44.9349 43.9035 46.5346 42.2593C48.1344 40.6152 48.9342 38.5489 48.9342 36.0604C48.9342 33.5275 48.1344 31.5056 46.5346 29.9948C44.9349 28.4839 43.0019 27.2842 40.7356 26.3954C38.4694 25.4622 36.2031 24.4846 33.9368 23.4626C31.6705 22.4405 29.7375 20.9741 28.1378 19.0634C26.5381 17.1526 25.7382 14.7974 25.7382 11.9979C25.7382 8.2208 26.8492 5.28797 29.071 3.19944C31.2928 1.06648 34.3145 0 38.1361 0C40.1357 0 42.3798 0.377712 44.8683 1.13313C47.3567 1.88856 48.8009 2.26627 49.2008 2.26627C50.4895 2.26627 51.2449 1.51085 51.4671 0H52.267V14.5975H51.2005C50.5339 10.5537 49.1786 7.33206 47.1345 4.93248C45.0904 2.48846 42.2909 1.26645 38.736 1.26645C36.3364 1.26645 34.4034 1.97743 32.937 3.39941C31.515 4.77695 30.804 6.64329 30.804 8.99844C30.804 11.3091 31.6039 13.2199 33.2036 14.7308C34.8033 16.2416 36.7363 17.4636 39.0026 18.3968C41.2689 19.2855 43.5352 20.2409 45.8014 21.263C48.0677 22.285 50.0007 23.7514 51.6004 25.6622C53.2001 27.573 54 29.9281 54 32.7277C54 36.6825 52.6002 39.882 49.8007 42.326C47.0012 44.77 43.5129 45.992 39.3359 45.992C37.2918 45.992 35.1144 45.6143 32.8037 44.8589C30.5374 44.1035 29.2043 43.7257 28.8044 43.7257C27.5157 43.7257 26.7603 44.4812 26.5381 45.992H25.7382L25.0717 29.6615H26.1382C27.4713 39.7042 32.0927 44.7256 40.0024 44.7256Z" fill="url(#paint1_linear_2_8)"/>
<defs>
<linearGradient id="paint0_linear_2_8" x1="21.3963" y1="2.6662" x2="56.7235" y2="55.3237" gradientUnits="userSpaceOnUse">
<stop stop-color="#74B9DF"/>
<stop offset="0.461215" stop-color="#EB8052" stop-opacity="0.65"/>
<stop offset="1" stop-color="#CC6C6C"/>
</linearGradient>
<linearGradient id="paint1_linear_2_8" x1="21.3963" y1="2.6662" x2="56.7235" y2="55.3237" gradientUnits="userSpaceOnUse">
<stop stop-color="#74B9DF"/>
<stop offset="0.461215" stop-color="#EB8052" stop-opacity="0.65"/>
<stop offset="1" stop-color="#CC6C6C"/>
</linearGradient>
</defs>
</svg>
